!!!OTL: Die Geburt im Walde Es gingen zwei Liebchen durch einen gruenen Wald;
!!!ARE: Europa, Mitteleuropa, Deutschland (BRD), Hessen, Bornich u.a.
!!!YOR: 1, S. 63
!!    1850 aufgezeichnet (ca.)
!!!SCT: Q0007A
!!!YEM: Copyright 1995, estate of Helmut Schaffrath.
**kern
*ICvox
*Ivox
*M3/4
*k[b-e-a-d-]
*A-:
{4e-
=1
4.a-
8g
4a-
=2
4b-
4a-
4b-
=3
4.cc
8dd-
8cc
8cc
=4
4b-
4r}
{4e-
=5
4.a-
8g
4a-
=6
4b-
4a-
4b-
=7
4.cc
8dd-
8cc
8cc
=8
4b-
4r}
{8cc
8ee-
=9
8ee-
8dd-
4dd-
8b-
8dd-
=10
4cc
8cc
8b-
8a-
8b-
=11
4cc
4ee-
4b-
=12
4a-
4r}
{8cc
8ee-
=13
8ee-
8dd-
4dd-
8b-
8dd-
=14
4cc
8cc
8b-
8a-
8b-
=15
4cc
4ee-
4b-
=16
4a-
4r}
==
!!!AGN: Ballade, Geburt, Tod, Moral
!! Melodiewiederholung = Textwiederholung
!!!ONB: ESAC (Essen Associative Code) Database: BALLADE
!!!AMT: simple triple
!!!AIN: vox
!!!EED: Helmut Schaffrath
!!!EEV: 1.0
*-
